X:935
T: John Potts'
T: R\'il She\'ain Potts
S: B.Breathnach:"Ceol Rince na hEireann" IV/188
Z: B.Black
L: 1/8
M: 4/4
R: reel
K: G
Bc|d2 ge dB d2|gfge dB G2|cBcd edcB|AGFG AF D2|
dcdg edBd|gfge dBGB|cBcd eaag|fdef g2 :|
dB|(3AAA BG AGFD|(3AAA BG AGFD|GABd g2 fg|eAcA eAcA|
(3AAA BG AGFD|(3AAA BG AGFD|GABd gfge|dcBA G2 :|
